X:2322 
T:Lhigey, lhigey -Children's singing game 
C:Mrs Bridson, Glion Meay
C:Traditional
O:Isle of Man
Z:Collected by Mona Douglas
B:Kiaull Vannin #322 
L:1/4
M:2/4 
Q:80 
K:D 
D F|D F|D F|(G/F/)(E/D/)|C E|C E|C E|(A/G/)(F/E/)| 
D F|D F|D F|A d|(B/A/)(G/F/)|E A|F2|D2| 
d (c/B/)|A G|F G|A2|d (c/B/)|A G|F G|E2| 
d (c/B/)|A G|F G|A2|(B/A/)(G/F/)|E A|F2|D2|| 

